X: 43
T: Heli de langtou fan san fan
%%abc-version 2.0
%%abcx-abcm2ps-target-version 5.9.1 (29 Sep 2008)
%%abc-creator hum2abc beta
%%abcx-conversion-date 2013/10/02 07:44:27
%%abc-edited-by Helmut Schaffrath
%%humdrum-veritas 2856687521
%%humdrum-veritas-data 819944325
%%continueall 1
%%barnumbers 0
L: 1/8
M: 4/4
K: C
A2 [I:setbarnb 1]| 
d2d2A G | 
A cd4 | 
d4-d e | 
d e d< c c d | 
A2z2z A | 
G2G2D D | 
G2A c d e | 
d2d cA2 | 
A c E D D D | 
G2A cA2z d/ d/ | 
[M:3/4]g2<d2A2 | 
A Gc2A2- | 
A4z d | 
[M:4/4]d g A> c A z A z | 
[M:3/4]A G A GG2 | 
[M:4/4]G8 | 
G2G2z2 |]  



